X: 1
T: Bonaparte Crossing The Rhine
Z: spindizzy
S: https://thesession.org/tunes/10620#setting10620
R: barndance
M: 4/4
L: 1/8
K: Dmaj
FG| A>BAF A2de| f>e(3fga d2dc| B>cdB AFED| E2E>F GA/G/ FG|
A>BAF A2de| f>efa d2dc| B>cdB AFEF| D2D>E D2de|
f>efg a2aA| B>ABc d3A| B>cdB AFDF| E2E>F GA/G/ FG|
A>BAF A2de| f>e(3fga d2dc| B>cdB AFEF| D2D>E D2 |]
